Adwaita++-Dark/actions/16/layer-next.svg

<svg height="16" viewBox="0 0 16 16" width="16" xmlns="http://www.w3.org/2000/svg">
  <path d="m4 1-3 4h11l3-4zm1.75 5-.75.8007812 1.0078125 1.0742188 1.9921875 2.125 1.9921875-2.125 1.0078125-1.0742188-.75-.8007812-1.0078125 1.0742188-1.2421875 1.3261718-1.2421875-1.3261718zm-1.75 5-3 4h11l3-4z" fill="#e6ddff"/>
</svg>

<svg xmlns="http://www.w3.org/2000/svg" width="16" height="16" viewBox="0 0 16 16">
 <defs>
  <style id="current-color-scheme" type="text/css">
   .ColorScheme-Text { color:#E6DDFF; } .ColorScheme-Highlight { color:#4285f4; }
  </style>
 </defs>
 <path style="fill:currentColor" class="ColorScheme-Text" d="M 4 1 L 1 5 L 12 5 L 15 1 L 4 1 z M 5.75 6 L 5 6.8007812 L 6.0078125 7.875 L 8 10 L 9.9921875 7.875 L 11 6.8007812 L 10.25 6 L 9.2421875 7.0742188 L 8 8.4003906 L 6.7578125 7.0742188 L 5.75 6 z M 4 11 L 1 15 L 12 15 L 15 11 L 4 11 z"/>
</svg>
